X:1107
T:Rorie Dall's Sister's Lament.
C:Highland Air.
M:3/4
L:1/8
Q:1/4=104 "Slow"
N:triplet not marked in bar 6; printed |g3 a bag|
I: :: ::
Z:Jack Campin * www.campin.me.uk * 2009
K:A Dorian
A3  BAB |G3   ABd|e2 E4  |edB   def |g2 G4  | g3  a (3bag|
e2 de gd|e2 d2 B2|ge`deg2|edBd   e2 |G3  ABd|TB4      A2:|
g3 efg|a3 fga    |b3 aga|b3d' (3bag     |a3 gab|e'3 d'``ba |g3 a (3bag| g2 f2 ed |
d3 def|g3 a (3bag|e3 deg|e>ged  B/d/e/f/|gedeg2|edB deg    |G3 A   Bd |TB4    A2:|

